src/assets/images/search-icon.svg

<svg fill="none" height="24" viewBox="0 0 24 24" width="24" xmlns="http://www.w3.org/2000/svg" xmlns:xlink="http://www.w3.org/1999/xlink"><clipPath id="a"><path d="m0 0h24v24h-24z"/></clipPath><g clip-path="url(#a)" opacity=".4"><path d="m18.031 16.617 4.283 4.282-1.415 1.415-4.282-4.283c-1.5933 1.2772-3.575 1.9719-5.617 1.969-4.968 0-9-4.032-9-9s4.032-9 9-9 9 4.032 9 9c.0029 2.042-.6918 4.0237-1.969 5.617zm-2.006-.742c1.2691-1.3051 1.9779-3.0546 1.975-4.875 0-3.868-3.133-7-7-7-3.868 0-7 3.132-7 7 0 3.867 3.132 7 7 7 1.8204.0029 3.5699-.7059 4.875-1.975z" fill="#fff"/></g></svg>

<svg width="24" height="24" viewBox="0 0 24 24" fill="none" xmlns="http://www.w3.org/2000/svg">
<g opacity="0.4" clip-path="url(#clip0_20_1063)">
<path d="M18.031 16.617L22.314 20.899L20.899 22.314L16.617 18.031C15.0237 19.3082 13.042 20.0029 11 20C6.032 20 2 15.968 2 11C2 6.032 6.032 2 11 2C15.968 2 20 6.032 20 11C20.0029 13.042 19.3082 15.0237 18.031 16.617ZM16.025 15.875C17.2941 14.5699 18.0029 12.8204 18 11C18 7.132 14.867 4 11 4C7.132 4 4 7.132 4 11C4 14.867 7.132 18 11 18C12.8204 18.0029 14.5699 17.2941 15.875 16.025L16.025 15.875Z" fill="white"/>
</g>
<defs>
<clipPath id="clip0_20_1063">
<rect width="24" height="24" fill="white"/>
</clipPath>
</defs>
</svg>
